icons/fire-line.svg

<svg viewBox="0 0 24 24" fill="currentColor" xmlns="http://www.w3.org/2000/svg"><path d="M12 23C16.1421 23 19.5 19.6421 19.5 15.5C19.5 14.6345 19.2697 13.8032 19 13.0296C17.3333 14.6765 16.0667 15.5 15.2 15.5C19.1954 8.5 17 5.5 11 1.5C11.5 6.49951 8.20403 8.77375 6.86179 10.0366C5.40786 11.4045 4.5 13.3462 4.5 15.5C4.5 19.6421 7.85786 23 12 23ZM12.7094 5.23498C15.9511 7.98528 15.9666 10.1223 13.463 14.5086C12.702 15.8419 13.6648 17.5 15.2 17.5C15.8884 17.5 16.5841 17.2992 17.3189 16.9051C16.6979 19.262 14.5519 21 12 21C8.96243 21 6.5 18.5376 6.5 15.5C6.5 13.9608 7.13279 12.5276 8.23225 11.4932C8.35826 11.3747 8.99749 10.8081 9.02477 10.7836C9.44862 10.4021 9.7978 10.0663 10.1429 9.69677C11.3733 8.37932 12.2571 6.91631 12.7094 5.23498Z"/></svg>

<svg xmlns="http://www.w3.org/2000/svg" viewBox="0 0 24 24">
    <g>
        <path fill="none" d="M0 0h24v24H0z"/>
        <path fill-rule="nonzero" d="M12 23a7.5 7.5 0 0 0 7.5-7.5c0-.866-.23-1.697-.5-2.47-1.667 1.647-2.933 2.47-3.8 2.47 3.995-7 1.8-10-4.2-14 .5 5-2.796 7.274-4.138 8.537A7.5 7.5 0 0 0 12 23zm.71-17.765c3.241 2.75 3.257 4.887.753 9.274-.761 1.333.202 2.991 1.737 2.991.688 0 1.384-.2 2.119-.595a5.5 5.5 0 1 1-9.087-5.412c.126-.118.765-.685.793-.71.424-.38.773-.717 1.118-1.086 1.23-1.318 2.114-2.78 2.566-4.462z"/>
    </g>
</svg>
